X: 30032
T: IN GOOD OLD COLONY TIMES
C:
%R: song, march, reel
B: Elias Howe "The Musician's Companion" Part 3 1844 p.3 #2
S: http://imslp.org/wiki/The_Musician's_Companion_(Howe,_Elias)
S: https://archive.org/stream/firstthirdpartof03howe/#page/66/mode/1up
Z: 2016 John Chambers <jc:trillian.mit.edu>
M: C
L: 1/8
K: C
% - - - - - - - - - - - - - - - - - - - - - - - - -
G2 |\
c2c2 d2cB | c4 z2d2 | e2e2 f2ed | e4 z2cd |\
e2e2 d3B | c2cc B3G | A2f2 e2d2 | c4 z2 |]
cd |\
e2e2 f2ed | e4 z2cd | e2e2 f2ed | e4 z2cd |\
e2e2 d3B | c2cc B3G | A2f2 e2d2 | c4 z2 |]
% - - - - - - - - - - - - - - - - - - - - - - - - -


